X:1
Q:1/4=108
L:1/8
M:1/4
K:C clef=G2
V:1
%%MIDI program 0
[^A,^A]15/8|^D2-|^D7/4z7/32|G15/8|
^A15/8|A2-|A7/4z7/32|^A15/8|
c15/8|c15/8|^c15/8|c2-|
c7/8z/8^A15/16|A15/8|^A2-|^A7/4z7/32|
[A,C^DA]15/8|[G,-^A,-D-G-]2|[G,^A,DG]7/4z7/32|[^A,DA]15/8|
[A,DA]15/8|[^A,-D-G-^A-]2|[^A,DG^A]7/4z7/32|[C^DGc]15/8|
[DG^Ad]15/8|[^DGc^d]15/8|[DG^Ad]15/8|[C^DGc]15/8|
[^D-G-^A,^A]15/16[A,-A-^DG]7/8|[D-F-^A,^A][D-F-]/2[D-F-^A,^A]15/32|[^A,-^A-D-F-]2|[^A,^ADF]3/4zz3/16|
[^A,^A]15/8|[G,-^A,-^D-]2|[G,^A,^D]7/4z7/32|[G,^A,^DG]15/8|
[^A,^DG^A]15/8|[A,-^F-A-]2|[A,^FA]7/4z7/32|[^A,G^A]15/8|
[CAc]15/8|[CAc]15/8|[^C^A^c]15/8|[C-A-c-]2|
[CAc]7/8z/8[^A,G^A]15/16|[A,^FA]15/8|[^A,-G-^A-]2|[^A,G^A]7/4z7/32|
[A,C^DA]15/8|[G,-^A,-D-G-]2|[G,^A,DG]7/4z7/32|[^A,DG]15/8|
[A,DA]15/8|[^A,-D-G-^A-]2|[^A,DG^A]7/4z7/32|[C^DGc]15/8|
[DG^Ad]15/8|[CEGc]15/8|[D-F-^A,^A]15/16[A,-A-DF]7/8|[G,GCF]15/8|
[^A,-D-G,G]7/8[^A,-D-]/8[F,-F-^A,D]7/8|[A,CF]z/2F15/32|F2-|F7/8z/8F15/32F15/32|
F15/16F15/16|[D-F-d-]2|[DFd]7/4z7/32|[^A,D^A]15/8|
[C^Dc]15/8|[F-d-D][F-d-D-^A,]15/32[d-D-F]/2|[d-D-F-^A]3/4(3:2[d-D-F][d-D-F-^A]3/4|[D-F-d-^A]3/4[D-d-F-^A]3/4[^A-d-DF]3/8[^Ad]/4|
[df]z/2[df]15/32|[D-G-d-]2|[DGd]7/4z7/32|[^A,G^A]15/8|
[CGc]15/8|[^F-d-D][^F-d-D-A,]15/32[d-D-^F]/2|[d-D-^F-A]3/4(3:2[d-D-^F][d-D-^F-A]3/4|[D-^F-d-A]3/4[D-d-^F-A]3/4[D-^F-d]3/8[D^F]/4|
[Ad]z/2[Ad]15/32|[D-F-d-]2|[DFd]7/4z7/32|[^A,D^A]15/8|
[C^Dc]15/8|[F-d-D][F-d-D-^A,]15/32[d-D-F]/2|[d-D-F-^A]3/4(3:2[d-D-F][d-D-F-^A]3/4|[D-F-d-^A]3/4[D-d-F-^A]3/4[^A-d-DF]3/8[^Ad]/4|
[df]z/2[df]15/32|[F-A-c-f-]2|[FAcf]7/8z/8[Ff]15/32[Ff]15/32|[G-B-Ff]15/16[F-f-GB]7/8|
[G-c-Ff]15/16[E-e-Gc]7/8|[A-c-Ff]15/16[A-c-CF]15/32[c-A-F]15/32|(3:2[c-A][c-A-F]3/4[A-c-]|[A-c-Ff]3/4[A-c-Ff]3/4[F-f-Ac]3/8[Ff]/4|
[Ff]3/4[Ff]3/4[Ff]3/4|[^D-c-^d-]2|[^Dc^d]7/4z7/32|[C^Fc]15/8|
[DFd]15/8|[c-^d-^D][c-^d-^D-C]15/32[^D-G-c^d]3/8|(3:2[C-c-GcG][C-c-G-^D]3/4[C-G-c]|[C-G-c-^d]3/4(3:2[C-G-c][c-^d-CG]15/32[c^d]3/16|
[^dg]z/2[^dg]15/32|[^D-G-c-^d-]2|[^DGc^d]7/4z7/32|[C^Gc]15/8|
[DFd]15/8|[G-^A-^d-^D][G-^A-^d-^D-^A,]15/32[^d-^D-^AG]/2|(3:2[^d-^A-^DG][^d-^D-^AG][^D-G-^d^A]|(3:2[^D-^d-G^A][^D-G-^d^A][^A-^d-^DG]3/8[^A^d]/4|
[^dg]15/8|[F-^A-d-f-]2|[F^Adf]7/4z7/32|[D^GBd]15/8|
[EGc^d]15/8|[C-^D-A-c-][C-^D-A-c-Ff]15/32[F-f-C^DAc]3/8|[FfD^Ad]15/8|[^A,-^D-^A-][^A,-^D-^A-Gg]15/32[^A,-^D-^A-Gg]15/32|
[^A,-^D-^A-^F^f]15/16[^F-^f-^A,^D^A]3/4[^F^f]3/16|
L:1/8
M:1/4
K:C clef=F4
V:2
%%MIDI program 0
[^A,,,^A,,]15/8|[^D,,-^D,-]2|[^D,,^D,]7/4z7/32|[G,,G,]15/8|
[^A,,^A,]15/8|[A,,-A,-]2|[A,,A,]7/4z7/32|[^A,,^A,]15/8|
[C,C]15/8|[C,C]15/8|[^C,^C]15/8|[C,-C-]2|
[C,C]7/8z/8[^A,,^A,]15/16|[A,,A,]15/8|[^A,,-^A,-]2|[^A,,^A,]7/4z7/32|
[^F,,,^F,,]15/8|[G,,,-G,,-]2|[G,,,G,,]7/4z7/32|[G,,G,]15/8|
[^F,,^F,]15/8|[^D,,^D,]15/8|[D,,D,]15/8|[C,,C,]15/8|
[^A,,,^A,,]15/8|[C,,C,]15/8|[D,,D,]15/16[^D,,^D,]15/16|[F,,F,]15/8|
[F,,,F,,]15/8|[^A,,,^A,,]z/2[^A,,,^A,,]15/32|^A,,,15/64^A,,15/64^A,,,15/64^A,,15/64^A,,,15/64^A,,15/64^A,,,15/64^A,,15/64|[^A,,,^A,,]15/16z|
[^A,,,^A,,]15/8|[^D,,-^D,-]2|[^D,,^D,]7/4z7/32|[^D,,^D,]15/8|
[^D,,^D,]15/8|[^D,,-^D,-]2|[^D,,^D,]7/4z7/32|[^D,,^D,]15/8|
[^D,,^D,]15/8|[^D,,^D,]15/8|[^D,,^D,]15/8|[^D,,-^D,-]2|
[^D,,^D,]7/8z/8[^D,,^D,]15/16|[^D,,^D,]15/8|[^D,,-^D,-]2|[^D,,^D,]7/4z7/32|
[^F,,,^F,,]15/8|[G,,,G,,]15/8|[D,,D,]15/8|[G,,G,]15/8|
[^F,,^F,]15/8|[^D,,^D,]15/8|[D,,D,]15/8|[C,,C,]15/8|
[^A,,,^A,,]15/8|[C,,C,]15/8|[C,,C,]15/8|[C,,C,]15/8|
[C,,C,]15/8|[F,,F,]z/2[F,,F,]15/32|[F,,-F,-]2|[F,,F,]7/8z/8[^D,,^D,]15/16|
[D,,D,]15/16[C,,C,]15/16|[^A,,,^A,,]15/8|[F,,,F,,]15/8|[^A,,,^A,,]15/8|
[^A,,,^A,,]15/8|[^A,,,^A,,]15/8|[^A,,,^A,,]15/8|[F,,F,]15/16[D,,D,]15/16|
[^A,,,^A,,]15/16[A,,,A,,]15/16|[G,,,G,,]15/8|[F,,,F,,]15/8|[^D,,,^D,,]15/8|
[^D,,,^D,,]15/8|[D,,,D,,]15/8|[D,,,D,,]15/8|[A,,,A,,]15/16[^F,,,^F,,]15/16|
[D,,,D,,]15/16[C,,,C,,]15/16|[^A,,,^A,,]15/8|[^A,,,^A,,]15/8|[^A,,,^A,,]15/8|
[F,,F,]15/8|[^A,,,^A,,]15/8|[^A,,,^A,,]z/2[^A,,,^A,,]15/32|[G,,G,]15/16[F,,F,]15/16|
[E,,E,]15/16[D,,D,]15/16|[C,,C,]15/8|[C,,C,]15/8|[G,,,G,,]15/8|
[C,,C,]15/8|[F,,F,]15/8|[C,,C,]15/8|[F,,F,]15/8|
[^D,,^D,]15/16[D,,D,]15/16|[C,,-C,-]2|[C,,C,]7/4z7/32|[C,,C,]15/8|
[C,,C,]15/8|[C,,-C,-]2|[C,,C,]7/4z7/32|[^A,,^A,]15/16[G,,G,]15/16|
[^D,,^D,]15/16[D,,D,]15/16|[C,,-C,-]2|[C,,C,]7/4z7/32|[C,,C,]15/8|
[G,,G,]15/8|[^D,,-^D,-]2|[^D,,^D,]7/4z7/32|[^A,,^A,]15/16[G,,G,]15/16|
[F,,F,]15/16[^D,,^D,]15/16|[D,,-D,-]2|[D,,D,]7/4z7/32|[G,,,G,,]15/8|
[C,,C,]15/8|[F,,F,]15/8|[^A,,,^A,,]15/8|[^D,,-^D,-]2|
[^D,,^D,]7/4z7/32|
Q:1/4=108
L:1/8
M:1/4
K:C clef=G2
V:1
%%MIDI program 0
[^A-d-F][^A-d-]|[^Ad]31/16
L:1/8
M:1/4
K:C clef=F4
V:2
%%MIDI program 0
[F,,-F,-]2|[F,,F,]31/16
Q:1/4=104
L:1/8
M:1/4
K:C clef=G2
V:1
%%MIDI program 0
[F-f]15/32
Q:1/4=102
L:1/8
M:1/4
K:C clef=G2
V:1
%%MIDI program 0
[F-f]15/32
Q:1/4=100
L:1/8
M:1/4
K:C clef=G2
V:1
%%MIDI program 0
[Ff]15/8|
Q:1/4=92
L:1/8
M:1/4
K:C clef=G2
V:1
%%MIDI program 0
[A-c-F][A-c-]|[Ac]2
L:1/8
M:1/4
K:C clef=F4
V:2
%%MIDI program 0
[F,,-F,-]2|[F,,-F,-]2|
Q:1/4=88
L:1/8
M:1/4
K:C clef=G2
V:1
%%MIDI program 0
[F-f]15/32
Q:1/4=86
L:1/8
M:1/4
K:C clef=G2
V:1
%%MIDI program 0
[F-f]15/32
Q:1/4=84
L:1/8
M:1/4
K:C clef=G2
V:1
%%MIDI program 0
[F-f]15/16
Q:1/4=80
L:1/8
M:1/4
K:C clef=G2
V:1
%%MIDI program 0
[Ff]15/16
Q:1/4=76
L:1/8
M:1/4
K:C clef=G2
V:1
%%MIDI program 0
[F^Af]15/8|[F^Af]z/2[F^Af]15/32|[F^Af]15/8
L:1/8
M:1/4
K:C clef=F4
V:2
%%MIDI program 0
[^A,,,^A,,]15/8|[F,,F,]15/8|[^A,,,^A,,]15/8


